X:1
T:Celer ne puis
T:Ebran
T:Source : Livre XII de 30 chansons nouvelles à 4 parties---Paris---P.Attaingnant---1543. Editor : André Vierendeels (18/06/18) Notes : Original clefs : C1, C3, C4, F4 (from m 12 : F3) Original note values have been halved Editorial accidentals above the staff
T:Celer ne puis
T:©
T:©
T:©
C:Ebran
Z:©
%%score [ 1 2 3 4 ]
L:1/8
Q:1/4=120
M:2/2
K:C
V:1 treble nm="Soprano" snm="S"
V:2 treble nm="Alto" snm="A"
V:3 treble-8 nm="Tenor" snm="T"
V:4 bass nm="Bass" snm="B"
V:1
 A8 | G4 A3 G | AB c4 B2 | c4 z2 G2 | c2 c2 B2 A2- |"^#" AG G4 F2 | G2 G2 A2 A2 | G3 A B2 A2 | %8
w: Ce-|ler ne _|_ _ _ _|puis, ne|mon- strer par fain-|* * ti- *|se, ne mon- strer|par _ _ fain-|
w: L'ar-|dant vou- *||loir, que|iay pour te ser-||vir, que iay pour|te _ _ ser-|
 c4 B2 c2- | cBAG F2 A2- |"^#" A2 G2 A4 :| z2 c2 c4 | A4 G4 | z2 G2 G2 G2 | A3 B c4 | %15
w: ti- * *||* * se,|car la|beaul- té,|qui sur toy|est as- si-|
w: ||* * vir,|||||
 B2 e2 d2 c2- | c2 B2 c4 | z2 G2 G4 | A4 G4 | z2 G4 c2- | c2 B2 A2 G2 | F4 E4 | z2 G4 c2- | %23
w: se, est as- si-|* * se,|con- trainct|mon cueur,|sur tou-|* * tes, te|choi- sir,|sur tou-|
w: ||||||||
 c2 B2 A2 G2 | c2 B3 A A2- |"^#" A2 G2 A4 | z2 G2 G4 | A4 G4 | z2 G4 c2- | c2 B2 A2 G2 | F4 E4 | %31
w: |tes, te _ _|_ choi- sir,|con- trainct|mon cueur,|sur tou-|* * tes, te|choi- sir,|
w: ||||||||
 z2 G4 c2- | c2 B2 A2 G2 | c2 B3 A A2- |"^#" A2 G2 A4- | A8 |] %36
w: sur tou-|* tes, te choi-||* * sir.|_|
w: |||||
V:2
 E8- | E4 C4- | C4 D4 | E4 z2 E2 | E2 E2 D2 F2 | E4 D4 | z2 D2 F2 F2 | E2 E2 DEFD | E4 z2 E2 | %9
w: Ce-|* ler|_ ne|puis, ne|mon- strer par fain-|ri- se,|ne mon- strer|par fain- ti- * * *|se, par|
w: L'ar-|* dant|_ vou-|loir, que|iay pour te ser-|* vir,|que iay pour|te ser- * * * *|vir, pour|
 C2 F3 ECD | E4 E4 :| z2 E2 E4 | D4 B,2 D2 | D2 E2 D2 E2 | F4 E2 C2 | G2 G2 A2 A2 | G4 E4 | %17
w: fain- ti- * * *|* se,|car la|beaul- té, qui|sur toy est as-|si- se, qui|sur toy est as-|se- se,|
w: te ser- * * *|* vir,|||||||
 z2 E2 E4 | C3 D EF E2- | E2 D2 E4- | E4 z2 D2 | D2 D2 B,2 E2- | E2 D2 E2 C2 | G3 F E2 E2 | %24
w: con- trainct|mon _ _ _ _|_ _ cueur,|_ sur|tou- tes, te choi-|* * sir, sur|tou- * * tes,|
w: |||||||
 F2 G2 A2 F2 | E4 E4 | z2 E2 E4 | C3 D EF E2- | E2 D2 E4- | E4 z2 D2 | D2 D2 B,2 E2- | %31
w: te _ _ _|choi- sir,|con- trainct|mon _ _ _ _|_ _ cueur,|_ sur|tou- tes, te choi-|
w: |||||||
 E2 D2 E2 C2 | G3 F E2 E2 | F2 G2 A2 F2 | E4 E4- | E8 |] %36
w: * * sir, sur|tou- * * tes,|te _ _ _|choi- sir.|_|
w: |||||
V:3
 c8 | B4 ABcB | A2 G4 F2 | G2 E2 G2 G2 | ABcA Bc d2 | B2 c2 A4 | G2 B2 c2 A2 | c2 c2 BcdB | %8
w: Ce-|ler ne _ _ _|_ _ _|puis, ne mon- strer|par _ _ _ _ _ _|fain- ti- *|se, ne mon- strer|par fain- ti- * * *|
w: L'ar-|dant vou- * * *||loir, que iay pour|te _ _ _ _ _ _|_ _ ser-|vir, que iay pour|re ser- * * * *|
 cd e3 dcB | A2 d3 cBA | B4 A4 :| z2 A2 G4 | F4 G2 B2 | B2 c2 B2 G2 | d4 c2 e2 | e2 e2 f3 e | %16
w: ||* se,|car la|beaul- té, qui|sur toy est as-|si- se, qui|sur toy est as-|
w: ||* vir,||||||
 d4 c4 | z2 c4 c2 | AGAB c4 | B4 z4 | z2 G2 c2 B2 | A2 A2 G2 c2 | c2 B2 G2 A2 | E4 z2 e2 | %24
w: si- se,|con- trainct|mon- * * * *|cueur,|sur tou- tes,|te choi- sir, sur|tou- tes, te choi-|sir, sur|
w: ||||||||
 c2 e2 d3 c | B4 A4 | z2 c4 c2 | AGAB c4 | B4 z4 | z2 G2 c2 B2 | A2 A2 G2 c2 | c2 B2 G2 A2 | %32
w: tou- tes, te _|choi- sir,|con- trainct|mon _ _ _ _|cueur,|sur tou- tes,|te choi- sir, sur|tou- tes, te choi-|
w: ||||||||
 E4 z2 e2 | c2 e2 d3 c | B4 A4- | A8 |] %36
w: sir, sur|tou- tes, te _|choi- sir.|_|
w: ||||
V:4
 A,,8 | E,4 F,4- | F,2 E,2 D,4 | C,4 z2 C,2 | C,D,E,F, G,2 D,2 | E,2 C,2 D,4 | G,,2 G,2 F,2 F,2 | %7
w: Ce-|ler ne|_ _ _|puis, ne|mon- * * * * strer|par fain- ti-|se, ne mon- strer|
w: L'ar-|dant vou-||loir, que|iay _ _ _ _ pour|te _ ser-|vir, que iay pour|
 C,D,E,F, G,2 D,2 | A,4 G,2 A,2- | A,G,F,E, D,2 F,2 | E,4 A,,4 :| z2 A,,2 C,4 | D,4 G,,2 G,2 | %13
w: par _ _ _ _ fain-|ti- * *||* se,|car la|beaul- té, qui|
w: te _ _ _ _ ser-|||* vir,|||
 G,2 C,2 G,2 E,2 | D,E,F,G, A,2 A,,2 | E,2 C,2 F,2 F,2 | G,4 C,4 | z2 C,2 C,4 | F,4 C,D,E,F, | %19
w: sur toy est as-|si- * * * se, qui|sur toy est as-|si- se,|con- trainct|mon cueur _ _ _|
w: ||||||
 G,2 G,2 C3 B, | A,2 G,2 F,2 G,2 | D,2 D,2 E,2 C,2 | F,2 G,2 C,4 | z2 G,2 C3 B, | A,2 G,2 F,2 D,2 | %25
w: _ sur tou _|_ tes, te choi-|sir, sur tou- tes,|te choi- sir,|sur tou- *|* tes, te _|
w: ||||||
 E,4 A,,4 | z2 C,2 C,4 | F,4 C,D,E,F, | G,2 G,2 C3 B, | A,2 G,2 F,2 G,2 | D,2 D,2 E,2 C,2 | %31
w: choi- sir,|con- trainct|mon cueur, _ _ _|_ sur tou- *|* tes, te choi-|sir, sur tou- tes|
w: ||||||
 F,2 G,2 C,4 | z2 A,2 C3 B, | A,2 G,2 F,2 D,2 | E,4 A,,4- | A,,8 |] %36
w: te choi- sir,|sur tou- *|te, te _ _|choi- sir.|_|
w: |||||

